icons/evolvere-blue-folders-flat-vivid-dark-fallback/apps/64/gloobus-preview.svg

<?xml version="1.0" encoding="UTF-8" standalone="no"?>
<!-- Created with Inkscape (http://www.inkscape.org/) -->

<svg
   xmlns:dc="http://purl.org/dc/elements/1.1/"
   xmlns:cc="http://creativecommons.org/ns#"
   xmlns:rdf="http://www.w3.org/1999/02/22-rdf-syntax-ns#"
   xmlns:svg="http://www.w3.org/2000/svg"
   xmlns="http://www.w3.org/2000/svg"
   xmlns:sodipodi="http://sodipodi.sourceforge.net/DTD/sodipodi-0.dtd"
   xmlns:inkscape="http://www.inkscape.org/namespaces/inkscape"
   width="64"
   height="64"
   id="svg13094"
   version="1.1"
   inkscape:version="0.91+devel r"
   sodipodi:docname="gloobus-preview.svg">
  <sodipodi:namedview
     id="base"
     pagecolor="#ffffff"
     bordercolor="#666666"
     borderopacity="1.0"
     inkscape:pageopacity="0"
     inkscape:pageshadow="2"
     inkscape:zoom="11.313709"
     inkscape:cx="23.728727"
     inkscape:cy="31.935381"
     inkscape:document-units="px"
     inkscape:current-layer="svg13094"
     showgrid="true"
     inkscape:snap-bbox="true"
     inkscape:bbox-paths="true"
     inkscape:bbox-nodes="true"
     inkscape:snap-bbox-edge-midpoints="true"
     inkscape:snap-bbox-midpoints="true"
     inkscape:object-paths="true"
     inkscape:snap-intersection-paths="true"
     inkscape:object-nodes="true"
     inkscape:snap-smooth-nodes="true"
     inkscape:snap-midpoints="true"
     inkscape:snap-object-midpoints="true"
     inkscape:snap-center="true"
     showguides="true"
     inkscape:guide-bbox="true"
     inkscape:window-width="1920"
     inkscape:window-height="1023"
     inkscape:window-x="-10"
     inkscape:window-y="35"
     inkscape:window-maximized="1"
     inkscape:snap-global="true"
     fit-margin-top="0"
     fit-margin-left="0"
     fit-margin-right="0"
     fit-margin-bottom="0"
     showborder="true"
     inkscape:showpageshadow="false"
     inkscape:snap-page="true">
    <inkscape:grid
       type="xygrid"
       id="grid3075"
       empspacing="5"
       visible="true"
       enabled="true"
       snapvisiblegridlinesonly="true"
       originx="1.6362304e-08px"
       originy="18px" />
  </sodipodi:namedview>
  <defs
     id="defs13096" />
  <metadata
     id="metadata13099">
    <rdf:RDF>
      <cc:Work
         rdf:about="">
        <dc:format>image/svg+xml</dc:format>
        <dc:type
           rdf:resource="http://purl.org/dc/dcmitype/StillImage" />
        <dc:title></dc:title>
      </cc:Work>
    </rdf:RDF>
  </metadata>
  <path
     inkscape:connector-curvature="0"
     style="color:#000000;fill:#2287d6;fill-opacity:1;fill-rule:nonzero;stroke:none;stroke-width:2.28571415;marker:none;visibility:visible;display:inline;overflow:visible;enable-background:accumulate"
     d="m 0,4 0,30 0,28 2,2 30,0 30,0 2,-2 L 64,34 64,4 32,4 0,4 z"
     id="path6498" />
  <path
     inkscape:connector-curvature="0"
     style="color:#000000;fill:#6fc8f2;fill-opacity:1;fill-rule:nonzero;stroke:none;stroke-width:2.28571415;marker:none;visibility:visible;display:inline;overflow:visible;enable-background:accumulate"
     d="M 2,0 0,1 0,4 32,4 64,4 64,1 62,0 32,0 2,0 z"
     id="path6502" />
  <path
     inkscape:connector-curvature="0"
     style="fill:#93d6f5;fill-opacity:1;fill-rule:nonzero"
     d="M 0,3 0,6 2,4 Z"
     id="path4298"
     sodipodi:nodetypes="cccc" />
  <path
     d="M 64,6 62,4 64,3 z"
     id="path3028"
     style="fill:#46a5e3;fill-opacity:1"
     inkscape:connector-curvature="0" />
  <g
     id="g3043"
     inkscape:export-filename="folder.png"
     inkscape:export-xdpi="90"
     inkscape:export-ydpi="90"
     transform="translate(-0.62500009,0.082283)" />
  <g
     id="scalable"
     transform="matrix(1.0385892,0,0,1.0385892,1214.7222,1878.8121)"
     inkscape:label="#g3701"
     style="fill:#ffffff" />
  <path
     id="path3831"
     d="m 32.558803,35.127859 c -0.31678,-1.381849 1.343336,-2.182379 2.473698,-2.034672 2.209428,0.289277 3.257135,2.766587 2.748552,4.752265 -0.773664,3.018783 -4.201411,4.377397 -7.011859,3.47322 -3.818242,-1.228846 -5.492211,-5.659574 -4.184313,-9.298918 1.666639,-4.635496 7.098597,-6.634655 11.549618,-4.911769 5.436023,2.104372 7.754579,8.567004 5.620075,13.845571 C 41.22387,47.212503 33.751877,49.859913 27.667203,47.303875 20.609329,44.33902 17.642526,35.825104 20.61136,28.911286 23.997586,21.026478 33.521409,17.72793 41.236899,21.122782 49.918248,24.942339 53.534115,35.514643 49.726861,44.062026 45.490839,53.575947 33.91028,57.525272 24.564804,53.290399 14.258753,48.617585 9.989746,35.983043 14.637847,25.803301 18.282224,17.821346 26.614205,12.798585 35.333414,13.025021"
     style="color:#000000;fill:#deebf5;fill-opacity:1;fill-rule:evenodd;stroke:none;stroke-width:1.5;marker:none;visibility:visible;display:inline;overflow:visible;enable-background:accumulate"
     inkscape:connector-curvature="0" />
</svg>

<svg xmlns="http://www.w3.org/2000/svg" viewBox="0 0 64 64"><g color="#000"><path d="m0 4v30 28l2 2h30 30l2-2v-28-30h-32-32" fill="#2287d6"/><path d="m2 0l-2 1v3h32 32v-3l-2-1h-30-30" fill="#6fc8f2"/></g><path d="m0 3v3l2-2" fill="#93d6f5"/><path d="m64 6l-2-2 2-1z" fill="#46a5e3"/><path d="m32.559 35.13c-.317-1.382 1.343-2.182 2.474-2.035 2.209.289 3.257 2.767 2.749 4.752-.774 3.02-4.201 4.377-7.01 3.473-3.818-1.229-5.492-5.66-4.184-9.299 1.667-4.635 7.099-6.635 11.55-4.912 5.436 2.104 7.755 8.567 5.62 13.846-2.531 6.259-10 8.906-16.09 6.35-7.06-2.965-10.02-11.479-7.06-18.393 3.386-7.885 12.91-11.183 20.626-7.789 8.681 3.82 12.297 14.392 8.49 22.939-4.236 9.514-15.817 13.463-25.16 9.228-10.306-4.673-14.575-17.307-9.927-27.487 3.644-7.982 11.976-13 20.696-12.778" fill="#deebf5" fill-rule="evenodd" color="#000"/></svg>
